packages/kaspersky-hexa-ui-icons/src/iconsSVGs/24/NewSolid.svg

<svg width="24" height="24" viewBox="0 0 24 24" fill="none" xmlns="http://www.w3.org/2000/svg">
<path d="M11.0825 2.9067C11.3197 1.94939 12.6805 1.9494 12.9177 2.9067C13.9162 6.93708 17.0631 10.084 21.0935 11.0825C22.0508 11.3197 22.0508 12.6805 21.0935 12.9177C17.0631 13.9162 13.9162 17.0631 12.9177 21.0935C12.6805 22.0508 11.3197 22.0508 11.0825 21.0935C10.084 17.0631 6.93708 13.9162 2.9067 12.9177C1.94939 12.6805 1.9494 11.3197 2.9067 11.0825C6.93708 10.084 10.084 6.93708 11.0825 2.9067Z" fill="black"/>
</svg>

<svg xmlns="http://www.w3.org/2000/svg" width="24" height="24" fill="none" viewBox="0 0 24 24"><path fill="#000" d="M11.0825 2.9066c.2372-.9573 1.598-.9573 1.8352 0 .9985 4.0304 4.1454 7.1772 8.1758 8.1758.9573.2372.9573 1.598 0 1.8352-4.0304.9985-7.1773 4.1454-8.1758 8.1758-.2372.9573-1.598.9573-1.8352 0-.9985-4.0304-4.1454-7.1773-8.1758-8.1758-.9573-.2372-.9573-1.598 0-1.8352 4.0304-.9986 7.1773-4.1454 8.1758-8.1758"/></svg>
